/* XPM */
static char *XPM_BTX[] = {
"51 34 2 1 0 0 XPMEXT",
"  c #FFFFFF",
"# c #000000",
"   #############################################   ",
"  #                                             #  ",
" #                                               # ",
"#              #####################              #",
"#           ###########################           #",
"#         ###############################         #",
"#        #################################        #",
"#       ##########               ##########       #",
"#       ###########             ###########       #",
"#       ###########   #######   ###########       #",
"#       ##########   #########   ##########       #",
"#        ######     ###########     ######        #",
"#         ###   ### ########### ###   ###         #",
"#             ##### ########### #####             #",
"#           ####### ########### #######           #", 
"#          ######## ########### ########          #", 
"#          ######## ########### ########          #", 
"#          ######## ########### ########          #", 
"#          ######### ######### #########          #",
"#          ########## ####### ##########          #",
"#          ###########       ###########          #",
"#          #############################          #",
"#          #############################          #",
"#          #############################          #",
"#                                                 #",
"#                                                 #",
"#  ### # #   #  #    #   #          #   #     #   #",
"#  # #   # ### #     ###   ## ##### ## #  # # ##  #",
"#  ##  # # # # ## ## # # # #  # # # #  ##  #  #   #",
"#  # # # # # #  # #  # # # #  # # # #  #   #  #   #",
"#  ### # # ### ## ## # # # #  # # # ## ## # # ##  #",
" #                                               # ",
"  #                                             #  ",
"   #############################################   ",
"XPMEXT author Philipp Maier",
"XPMENDEXT"
};

