/* XPM */
static char * 25c3_world_xpm[] = {
"20 21 2 1",
" 	c #FFFFFF",
".	c #000000",
"                    ",
"       .    . .     ",
"     .         .    ",
"   .   .......   .  ",
"   .  ... ....   .  ",
"  . .........     . ",
" . ..........      .",
" . ........         ",
"  .........         ",
"  ......            ",
". ..... .. ...      ",
". .....  ..  .    . ",
"  ...    ...  .  .. ",
"  ...       .  ...  ",
"   ..       . .... .",
"   ....      ....  .",
"  . ....     .... . ",
"     ....   .... .  ",
"      ...   ...     ",
"     .  ....        ",
"       .    .       "};
