/* XPM */
static char * chaosknoten_xpm[] = {
"80 60 2 1",
" 	c #FFFFFF",
".	c #000000",
"                                                                                ",
"                                                                                ",
"             ................                                                   ",
"   ..................................                                           ",
"   ...................................                                          ",
"  .....          ..       ..      ....                                          ",
"  ....           ...      ...      ...                                          ",
"  ...             ...     ...       ...                                         ",
"  ...              ..     ..        ...                                         ",
"  ..               ...    ...       ...                                         ",
"  ..                ...   ...        ..                   .                     ",
"  ..                 ...  ........................    ... ..                    ",
" ...                  ..    .........................  ......  .                ",
" ...                   ...     .........         ...... .. ... ..               ",
" ...                   ............................  ...... .. ...              ",
" ...                     ............................. ........ ..              ",
" ...                                 ....................... .. .. .            ",
" ...                     ...........................................            ",
"  ..                   ...................................... ......            ",
"  ..                  .....                           ...............           ",
"  ..                 ....   ..........................................          ",
"  ..                 ...   ..........................................           ",
"  ..                ...   ...                        ................           ",
"  ...              ...    ..        ...               ...... ..........         ",
"  ...             ...     ..        ...                 ...............         ",
"  ...            ...      ..        ...                ........ ... ..          ",
"  ...            ...      ..        ..                  ....   .......          ",
"  ....          ...       ..       ...                       .........          ",
"   ....         ..        ..       ...                  ........  ...           ",
"   ...................................                  .......  ...            ",
"   ..................................                     .    .... .           ",
"    ................................                        ...... ...          ",
"                                                             ... . ...          ",
"                                                               ...  ...         ",
"                                                               ....  ...        ",
"                                                              .....  .......... ",
"                                                              .....  .......... ",
"                                                             ... ..   .. .....  ",
"                                                            ...  ..   ..        ",
"                                                            ...  ..   ..        ",
"                                                           ...   ..   ..        ",
"                                                           ...   ..   ..        ",
"                                                           ..    ..  ...        ",
"                                                           ..   ...  ..         ",
"                                                           ..   ...  ..         ",
"                                                                ..  ..          ",
"                                                                .. ...          ",
"                                                          ..........            ",
"                                                          ........              ",
"                                                               ...              ",
"                                                               ..               ",
"                                                               ...              ",
"                                                               ...              ",
"                                                               ...              ",
"                                                               ...              ",
"                                                                ...             ",
"                                                                 ...            ",
"                                                                  ..            ",
"                                                                                ",
"                                                                                "};
